X:0307
T:The Rock and the Wee Pickle Tow
P:The Rock and the Wee Pickle Tow
C:Traditional
R:Jig (8x32)
B:RSCDS 3-7
Z:Anselm Lingnau <anselm@strathspey.org>
M:6/8
L:1/8
K:F
|:F|"F"C>DF GAc|"Bb"d>cA "C7"G2c/B/|"F"AFG "C7"A2G|"Dm"AFF "Bb"F2 F/D/|
    "F"C>DF GAc|"Bb"dfA "C7"G2 c/B/|"F"AFG "Bb"[A2D2]G|"F"[AC]FF F2:|
|:f|"Bb"ddf "F"cde|"Gm"fed "F"dcA|"F"c>dc "Am"cde|"Bb"fed "F"c2A|
